assets/images/svg/mailchimp.svg

<?xml version="1.0" encoding="UTF-8" standalone="no"?>
<svg width="512px" height="126px" viewBox="0 0 512 126" version="1.1" xmlns="http://www.w3.org/2000/svg" xmlns:xlink="http://www.w3.org/1999/xlink" preserveAspectRatio="xMidYMid">
	<g>
		<path d="M473.79766,79.0356011 L473.719932,78.8939355 L473.564476,78.4012402 L473.635935,78.2545599 C478.515249,68.200065 484.105398,62.4369088 488.972174,62.4369088 L489.022321,62.4369088 C494.515937,62.4782802 498.31458,67.4215312 498.261926,74.4546629 C498.225569,79.1484321 496.155747,81.8513611 494.429433,83.2918368 C492.456145,84.9366619 489.830944,85.8769201 487.22204,85.8769201 C480.793181,85.8280267 476.380236,82.1309313 473.79766,79.0356011 L473.79766,79.0356011 Z M472.466254,116.990692 C471.681452,118.03626 470.588245,118.565312 469.219229,118.565312 C467.647117,118.552775 466.466153,118.004918 465.662546,116.93177 C463.41094,113.922943 464.045301,106.853455 467.718577,94.0183029 C468.15611,92.4850551 468.633762,90.9430316 469.136486,89.4348574 L469.562737,88.1535988 L469.936333,89.4499015 C474.218896,104.265864 475.067635,113.531796 472.466254,116.990692 L472.466254,116.990692 Z M315.163556,48.7442413 C315.307729,45.5448559 315.576016,42.4294669 315.958388,39.4845781 C318.436909,20.5013909 323.610837,7.24374956 328.544058,7.24374956 L328.565371,7.24374956 C330.91727,7.26130104 332.094473,9.04026965 332.0694,12.5280009 C332.002955,21.0993951 326.572023,33.3703921 315.929553,48.9999916 L315.097112,50.223581 L315.163556,48.7442413 L315.163556,48.7442413 Z M487.778673,92.0450143 L487.951681,92.0475216 C498.309566,92.0475216 505.600955,84.870217 505.678683,74.5988358 C505.717547,69.5126656 504.24949,64.8577604 501.541547,61.4941432 C498.679401,57.9336986 494.672647,56.034377 489.95255,55.9980203 L489.858524,55.9980203 C483.488588,55.9980203 477.573737,60.829694 471.775478,70.7738653 L471.314124,71.5674433 L471.017003,70.701152 C469.552707,66.4373942 468.248883,62.8869791 467.469095,60.7645028 C466.923745,59.2826558 466.681785,58.616953 466.62537,58.4013204 C466.347054,57.325665 465.426854,56.6574548 464.22207,56.6574548 C463.481146,56.6574548 462.693837,56.909444 461.947899,57.3833341 C461.209482,57.8522096 460.797023,58.4276476 460.649089,59.1948984 L460.611478,59.3102367 C454.808204,77.4070738 450.022917,86.1978616 445.969777,86.1978616 C445.380548,86.1928469 444.919195,85.9997805 444.575687,85.6174089 C443.513822,84.4439666 443.774587,81.6532801 444.135646,77.7894455 C444.400172,74.9511193 444.703562,71.7366897 444.576941,68.3279402 C444.336235,61.7724596 440.750717,57.8359118 434.983799,57.7920331 C427.656053,57.7895257 422.905869,65.5924155 420.718201,70.2448133 L420.065035,71.6338882 L419.920862,70.1056551 C419.374259,64.3487673 417.442341,57.4723453 411.341946,57.4259592 C404.226072,57.4259592 398.805169,65.7767061 395.497968,72.7847643 L394.611617,74.6627734 L394.700629,72.5879369 C395.094283,63.2417699 395.416479,57.7230808 395.658438,56.193594 C395.900398,54.6578389 395.772523,53.6273158 395.271052,53.0368337 C394.795908,52.4839618 393.898275,52.2796124 392.581913,52.3623551 C390.303981,52.506528 389.139314,53.8930955 387.385419,58.5404786 C384.505722,66.1728683 377.177976,83.9299587 371.327062,83.9299587 C370.166157,83.9224367 369.247211,83.5262745 368.573986,82.7552627 C366.120539,79.9420101 367.102168,72.338455 368.459901,61.8150847 L368.562703,61.0189994 C369.204586,56.0368843 368.108872,54.9737657 365.404689,54.4760556 C365.112582,54.4234012 364.835519,54.3945666 364.581023,54.3945666 C362.420936,54.3945666 361.409218,56.4656421 359.392051,62.2162615 C355.799011,72.451286 351.181716,83.2153624 345.778365,83.2153624 C345.580284,83.2153624 345.38471,83.2003183 345.187883,83.1689764 C342.324483,82.6812958 342.387167,78.4350895 342.467402,73.0555586 C342.508774,70.1470265 342.557667,66.8486005 342.108851,63.8711161 C341.302736,58.5291955 338.153497,55.1919056 333.892247,55.15931 C325.386044,55.15931 319.649215,66.0512615 316.982643,72.5440582 L316.377116,74.0133684 L316.176528,72.4362419 C315.81923,69.6204818 315.347847,65.1598967 315.143498,59.8831674 L315.137229,59.7264577 L315.233762,59.6035973 C331.151708,39.5660671 338.293909,25.1061489 338.389189,12.7173062 C338.450619,4.80283914 334.797402,0.048893429 328.621786,0.00125367767 C324.106039,0.00125367767 313.365783,3.76228668 309.634838,38.6095111 C308.941554,45.0722195 308.56169,51.6979059 308.505274,58.3035335 L308.504021,58.4326623 L308.430054,58.5379713 C301.148694,69.0801468 285.604344,87.2108332 270.388459,87.2108332 C256.638122,87.2108332 245.668442,76.0869512 245.668442,56.4531053 C245.668442,30.130889 264.3006,13.9697302 278.321731,13.9697302 L278.437069,13.9709839 C281.483506,13.9935501 284.09617,14.8447972 285.992984,16.4319532 C287.962512,18.0792856 288.991781,20.3885599 288.971723,23.1090404 C288.942888,26.743452 287.76067,28.6114317 286.616062,30.4154739 C286.321448,30.8805883 286.029341,31.3419417 285.761054,31.8308759 C285.49026,32.3235713 285.243285,33.0406749 285.603091,33.6537233 C285.971672,34.2818158 286.913184,34.6779779 288.060299,34.6855 C291.397589,34.6855 296.446149,29.8550799 296.501311,22.5749737 C296.55898,14.9563746 290.14015,7.10709869 278.691566,7.10709869 C261.363233,7.10709869 238.028531,26.1416867 238.028531,56.9921867 C238.028531,78.8149538 251.711169,93.8979498 270.245539,93.8979498 C283.397872,93.8979498 296.408539,84.4815769 307.93109,68.7516832 L308.63691,67.7988882 L308.687058,68.9836136 C308.932778,74.7405014 309.350253,79.2775609 309.65615,82.591031 C309.852978,84.7210293 309.995897,86.2592918 309.988375,87.1080316 C309.974585,88.9697429 310.277975,90.2597773 310.919858,91.0533552 C311.559233,91.8469332 312.579727,92.2217828 314.12175,92.2330659 C316.710595,92.2330659 317.228364,90.4678877 318.252618,86.1163726 L318.548486,84.8727243 C319.820969,79.5985024 324.524768,62.385508 331.600524,62.385508 C332.756415,62.3955374 333.646526,62.7377914 334.279633,63.408509 C335.841716,65.0658709 335.672469,68.4670984 335.474388,72.4074073 C335.350274,74.8658692 335.222399,77.4045665 335.469374,79.8780725 C336.13633,86.5551598 339.018535,89.8197364 344.283981,89.8586004 C349.689839,89.8611078 355.330135,84.037775 358.306366,78.6269022 L358.869267,77.6051549 L359.087407,78.7510163 C359.637772,81.645758 362.09498,91.1511421 369.7888,91.1511421 C376.763009,91.1511421 382.744305,83.808352 389.302293,68.6952677 L390.159808,66.7219791 L390.107154,68.8745436 C389.966742,74.6013432 389.657083,81.5943572 389.654576,87.0002153 C389.652069,91.182484 390.074558,92.7796694 392.007729,92.7796694 C392.145634,92.7796694 392.293567,92.7984745 392.446516,92.7984745 C394.300705,92.7984745 395.559398,91.6927308 396.18749,89.5038096 C401.120712,72.3071131 405.385723,64.2973665 409.610617,64.2973665 C413.747753,64.3299621 414.136393,71.8933994 414.467364,85.2601107 L414.489931,86.1978616 C414.590225,90.871572 414.758218,92.9413938 417.662989,92.9627063 C419.866954,92.9627063 420.414811,91.2313774 421.554404,86.9688734 C421.77129,86.1564903 422.009489,85.2651254 422.287806,84.302301 C426.27074,70.4805047 429.57418,64.8414626 433.684989,64.8414626 C437.205316,64.8677898 437.40089,68.4971866 437.466081,69.6894341 C437.601478,72.2431755 437.338206,74.91727 437.084963,77.4973386 C436.849272,79.8968777 436.604805,82.3779058 436.697577,84.68718 C436.913209,90.0930381 439.873142,93.0930888 445.03328,93.1319528 C451.730426,93.1319528 457.775659,85.2989747 463.06994,69.8561732 L463.437268,68.7780104 L463.85725,69.8361144 C464.816313,72.2632344 466.067483,75.5491235 467.227135,79.4693736 L467.271014,79.6185612 L467.20833,79.7602268 C462.082042,91.14362 458.465182,103.82457 458.413781,110.59819 C458.344829,119.520614 462.381671,125.318873 468.698953,125.367767 L468.808023,125.367767 C472.244353,125.367767 480.2541,123.988721 480.409556,111.220014 C480.47224,105.987164 479.236114,98.587958 476.737534,89.2242395 L476.451696,88.1510914 L477.374402,88.7666472 C480.563758,90.8816014 484.16056,92.014926 487.778673,92.0450143 L487.778673,92.0450143 Z" fill="#0B0B0A"></path>
		<path d="M150.475443,65.8381363 C148.220077,74.9097479 143.897397,85.8568613 136.103283,86.4837001 C135.885143,86.4987443 135.673271,86.511281 135.468922,86.511281 C132.235687,86.511281 130.422869,84.3925658 130.080615,80.2178191 C129.651857,74.9924906 131.90597,68.8745436 135.818698,64.62583 C138.311009,61.9203936 141.121754,60.4310245 143.731911,60.4310245 L143.784566,60.4310245 C147.081738,60.4560981 149.391012,63.1026116 150.452877,65.571103 L150.509293,65.6977244 L150.475443,65.8381363 L150.475443,65.8381363 Z M221.9451,15.1093232 L222.056677,15.1068159 C222.791332,15.1068159 223.436976,15.4766508 223.976058,16.2050375 C226.53356,19.6639342 226.57117,32.2834536 222.173269,46.6443312 C219.658392,54.8496516 216.278477,62.6036479 212.398344,69.0625953 L211.780281,70.090611 L211.622318,68.9008709 C211.164726,65.4281837 210.940317,61.8125773 210.7811,58.7347987 C209.659059,37.0298772 216.224569,15.4064448 221.9451,15.1093232 L221.9451,15.1093232 Z M162.590984,90.385145 C170.121826,89.7796187 176.098108,79.5370722 178.317117,75.1617371 L178.888794,74.0334272 L179.10568,75.2795828 C180.170053,81.4351402 183.518626,91.7779809 193.993103,91.8582163 L194.08086,91.8582163 C198.611651,91.8582163 203.752983,89.0875886 208.94697,83.847216 L209.328088,83.4623369 L209.605151,83.924944 C213.102911,89.774604 217.794173,92.8824709 222.787571,92.6279744 C230.141644,92.2456027 234.603483,87.0353183 234.997138,83.4159509 C235.097432,82.4932441 234.852965,81.6256992 234.326421,81.038978 C233.664479,80.3018156 232.705415,80.2153118 231.998341,80.8910441 L231.663609,81.2094782 C229.951085,82.8530496 226.761729,85.9157841 223.287789,86.0975674 C219.032807,86.3056779 215.884822,83.7619659 213.851357,78.5115638 L213.76736,78.2909166 L213.91028,78.1053723 C225.6096,62.801729 233.821188,39.4494751 233.011313,23.7885337 C232.637717,16.5397695 230.529031,7.8981693 222.61331,7.8981693 C222.41899,7.8981693 222.222163,7.90318401 222.022828,7.91446711 C218.988928,8.07117681 216.232091,9.51541349 213.82503,12.2083131 C206.479732,20.4261702 202.635956,40.6530057 204.0313,63.7394799 C204.320899,68.5360507 205.153341,73.019202 206.506059,77.0598051 L206.582534,77.2842134 L206.428331,77.4659967 C202.086846,82.5396302 197.803029,85.3353314 194.365445,85.3353314 C186.094933,85.3353314 186.37325,71.4696564 187.02767,59.9684175 C187.169335,57.4886431 187.378699,55.9090092 186.645298,55.011376 C186.120007,54.369493 185.243686,54.0523126 183.966189,54.0410295 L183.815747,54.0397758 C180.87462,54.0397758 180.25781,54.6453021 178.752143,59.0131151 C175.619203,68.0884877 169.436065,83.3156567 163.215316,83.3156567 C161.490255,83.3006125 160.173894,82.711384 159.273753,81.5630153 C156.256151,77.7104638 158.547874,68.1047855 160.388273,60.3846385 C160.719244,58.9968173 161.036424,57.6641579 161.308472,56.4305391 C161.712156,54.6001697 161.588042,53.265003 160.941145,52.4563809 C160.292993,51.6515198 158.996691,51.32431 157.287928,51.4597072 C154.622609,51.6728324 152.920115,52.7886055 152.097702,57.8547169 L151.932217,58.9078062 L151.3129,58.1593606 C150.149487,56.4418222 147.880331,54.3945666 143.670481,54.3945666 C143.300646,54.3945666 142.919528,54.4096107 142.52462,54.4409527 C138.031439,54.8095339 132.913927,57.9412207 129.169192,62.6124237 C124.796364,68.0684289 122.708991,74.9736855 123.289443,82.0544569 C123.320785,82.4293066 123.374693,82.789112 123.428602,83.1464102 L123.45869,83.3444912 L123.323293,83.4949326 C120.706867,86.3445419 118.041549,87.7887786 115.401303,87.7887786 C111.326851,87.7574366 108.987488,84.7285514 108.987488,79.6850061 C108.987488,71.1900863 114.743123,45.5887347 114.743123,36.3202957 C114.743123,26.4563598 110.347729,21.0856047 102.715339,21.0279355 L102.600001,21.0266818 C91.45606,21.0266818 82.7693274,33.6737821 74.4574445,59.6913547 C73.6964622,62.074596 72.8690349,64.8264184 72.1581997,67.2058987 L70.9922794,71.1198803 L71.3382945,67.0516963 C72.1105599,57.9876068 72.6408656,49.1704917 72.9141673,40.8410573 C73.3278809,28.2666703 71.627894,20.174181 67.7176734,16.1022359 C65.6077339,13.9057927 62.8170474,12.8238688 59.1813822,12.7950343 L59.084849,12.7950343 C45.4473433,12.7950343 38.914429,35.7962584 34.1579759,52.0251158 C32.722515,56.9244881 29.8917108,67.9756567 28.0024186,75.5290647 L29.1219527,73.7099784 C29.9606631,64.1970723 32.3915441,40.3684209 32.232327,27.4417504 C32.0605732,13.5748218 27.4420247,7.35658055 17.2571473,7.27885253 L17.1317796,7.27885253 C11.6908185,7.27885253 7.9172487,9.98178158 5.70826866,12.2509382 C2.16286822,15.8916181 -0.0473655093,21.2122261 0.075494902,25.8069548 C0.150715562,28.6001486 1.86574661,31.0874451 3.16455667,31.0874451 C4.0107891,31.0874451 4.47966454,29.9578815 4.68276033,29.2846566 C7.8332523,18.8678489 11.9114657,13.8029911 17.1468237,13.8029911 C19.3169397,13.8192889 20.9316766,14.4599182 22.1427292,15.7587283 C26.2309721,20.1453464 25.4875412,31.990093 24.138584,53.4931723 C23.7035579,60.4235025 23.2108626,68.2765394 22.7946416,77.2089927 C22.7231819,78.7422405 22.6279024,80.2203265 22.5376376,81.6282065 C22.1389681,87.8314036 21.8242951,92.7332833 24.1761944,93.0981035 C27.2376752,93.5757547 29.2310227,92.3308528 30.249009,89.3019675 C31.7609442,84.8062794 35.1521423,72.5202383 41.7138912,50.0668713 C48.0098605,28.5211669 52.7663135,20.6819205 58.8516649,20.6819205 C65.8822893,20.6819205 66.4063265,32.7535827 65.1175459,58.2270592 C64.8429905,63.6266489 64.4756629,69.7433422 64.1935855,76.4003707 C64.1547215,77.3368679 64.1095891,78.2420231 64.066964,79.1158365 C63.7961696,84.6282572 63.5830444,88.977265 65.1564099,90.6446563 C65.6478516,91.1636789 66.3160618,91.4206828 67.1999045,91.4256975 C70.2475949,91.4256975 71.1627796,88.7541104 72.6822369,84.3248672 C72.950524,83.543826 73.2351088,82.7088767 73.5522892,81.8338097 C83.9954242,53.0255506 91.7180786,28.0309789 102.082232,28.0309789 C105.191353,28.0309789 107.608443,30.5558858 107.608443,35.4815853 C107.608443,46.8486807 102.052144,68.8131134 102.052144,79.9482785 C102.052144,83.9374808 103.199259,87.5204916 105.369375,90.0366226 C107.595906,92.6204523 110.711295,93.9994977 114.378302,94.0283323 L114.458538,94.0283323 C117.92621,94.0283323 121.540563,92.3433895 125.200048,89.0211437 L125.543556,88.7102317 L125.819365,89.0825739 C128.228933,92.322077 132.119095,94.0621816 136.317662,93.7387328 C142.759057,93.2372617 148.163662,87.5029401 150.174561,82.0933209 L150.566962,81.0364707 L150.960617,82.0933209 C152.452493,86.1075968 155.684474,90.9430316 162.590984,90.385145 L162.590984,90.385145 Z" fill="#0B0B0A"></path>
		<path d="M186.625239,32.5843362 C183.748049,32.5843362 181.42373,34.8509854 181.403672,37.6366572 C181.379852,40.4436415 183.689126,42.7453937 186.547511,42.7679599 L186.588882,43.1854346 L186.588882,42.7679599 C189.423448,42.7679599 191.747766,40.5025644 191.769078,37.7168926 C191.791645,34.9086546 189.483624,32.6069024 186.625239,32.5843362" fill="#0B0B0A"></path>
		<path d="M367.52215,32.5843362 C364.64496,32.5843362 362.321896,34.8509854 362.299329,37.6366572 C362.276763,40.4436415 364.584784,42.7453937 367.444422,42.7679599 L367.48454,43.1854346 L367.48454,42.7679599 C370.321613,42.7679599 372.645931,40.5025644 372.667244,37.7168926 C372.687302,34.9086546 370.380536,32.6069024 367.52215,32.5843362" fill="#0B0B0A"></path>
		<path d="M508.394149,92.8523827 C506.721743,92.8523827 505.374039,91.5059329 505.374039,89.8335268 C505.374039,88.1611208 506.721743,86.8121637 508.394149,86.8121637 C510.065301,86.8121637 511.415512,88.1611208 511.415512,89.8335268 C511.415512,91.5059329 510.065301,92.8523827 508.394149,92.8523827 L508.394149,92.8523827 Z M508.394149,86.2981558 C506.447187,86.2981558 504.861285,87.8853118 504.861285,89.8335268 C504.861285,91.7804883 506.447187,93.3651368 508.394149,93.3651368 C510.342364,93.3651368 511.92952,91.7804883 511.92952,89.8335268 C511.92952,87.8853118 510.342364,86.2981558 508.394149,86.2981558 L508.394149,86.2981558 Z" fill="#0B0C0A"></path>
		<path d="M508.281318,89.6128796 L507.625644,89.6128796 L507.625644,88.2375952 L508.535814,88.2375952 C508.973348,88.2375952 509.448492,88.3892902 509.448492,88.9108201 C509.448492,89.5865523 508.841712,89.6128796 508.281318,89.6128796 L508.281318,89.6128796 Z M509.959992,88.9108201 C509.959992,88.1811797 509.60144,87.7825102 508.678734,87.7825102 L507.111637,87.7825102 L507.111637,91.8544552 L507.625644,91.8544552 L507.625644,90.0717256 L508.356538,90.0717256 L509.572606,91.8544552 L510.151805,91.8544552 L508.935738,90.0717256 C509.487356,89.9764461 509.959992,89.6630267 509.959992,88.9108201 L509.959992,88.9108201 Z" fill="#0B0C0A"></path>
	</g>
</svg>

<svg width="512" height="126" viewBox="0 0 512 126" xmlns="http://www.w3.org/2000/svg" preserveAspectRatio="xMidYMid"><path d="M473.798 79.036l-.078-.142-.156-.493.072-.145c4.88-10.055 10.47-15.818 15.336-15.818h.05c5.494.04 9.293 4.985 9.24 12.018-.036 4.693-2.106 7.396-3.833 8.837-1.974 1.645-4.6 2.585-7.208 2.585-6.43-.05-10.842-3.746-13.424-6.84zm-1.332 37.955c-.785 1.046-1.878 1.575-3.247 1.575-1.573-.012-2.754-.56-3.557-1.633-2.252-3.01-1.618-10.08 2.056-22.914.436-1.533.914-3.075 1.416-4.583l.427-1.28.373 1.295c4.283 14.816 5.132 24.082 2.53 27.54zM315.164 48.745c.144-3.2.412-6.315.794-9.26 2.48-18.983 7.653-32.24 12.586-32.24h.02c2.353.017 3.53 1.796 3.505 5.284-.067 8.57-5.498 20.842-16.14 36.472l-.833 1.224.067-1.48zm172.615 43.3l.172.004c10.358 0 17.65-7.178 17.727-17.45.038-5.085-1.43-9.74-4.138-13.104-2.863-3.56-6.87-5.46-11.59-5.496h-.093c-6.37 0-12.286 4.832-18.085 14.776l-.46.793-.298-.866c-1.464-4.263-2.768-7.813-3.548-9.935-.546-1.482-.788-2.148-.845-2.364-.278-1.074-1.198-1.743-2.403-1.743-.74 0-1.528.252-2.274.726-.74.47-1.15 1.045-1.3 1.812l-.037.115c-5.802 18.097-10.587 26.888-14.64 26.888-.59-.005-1.05-.198-1.394-.58-1.062-1.174-.8-3.965-.44-7.83.264-2.837.568-6.05.44-9.46-.24-6.556-3.825-10.492-9.592-10.536-7.328-.002-12.078 7.8-14.266 12.453l-.653 1.39-.144-1.53c-.546-5.756-2.478-12.633-8.578-12.68-7.116 0-12.537 8.352-15.844 15.36l-.886 1.878.09-2.075c.392-9.346.714-14.865.956-16.394.242-1.536.115-2.567-.387-3.157-.474-.553-1.372-.757-2.688-.675-2.278.145-3.443 1.53-5.197 6.178-2.88 7.633-10.207 25.39-16.058 25.39-1.16-.008-2.08-.404-2.753-1.175-2.453-2.813-1.472-10.417-.114-20.94l.103-.796c.642-4.983-.454-6.046-3.158-6.544-.292-.053-.57-.08-.824-.08-2.16 0-3.17 2.07-5.188 7.82-3.593 10.235-8.21 21-13.614 21-.198 0-.393-.016-.59-.047-2.864-.49-2.8-4.735-2.72-10.114.04-2.91.09-6.207-.36-9.185-.805-5.34-3.955-8.678-8.216-8.71-8.506 0-14.243 10.89-16.91 17.384l-.605 1.47-.2-1.578c-.358-2.816-.83-7.276-1.034-12.553l-.006-.157.097-.122c15.918-20.038 23.06-34.498 23.155-46.887C338.45 4.803 334.796.05 328.62 0c-4.516 0-15.256 3.762-18.987 38.61-.693 6.462-1.073 13.088-1.13 19.694v.13l-.075.104c-7.28 10.542-22.826 28.673-38.042 28.673-13.75 0-24.72-11.123-24.72-30.757 0-26.322 18.633-42.483 32.654-42.483h.115c3.047.024 5.66.875 7.556 2.462 1.97 1.647 3 3.957 2.98 6.677-.03 3.633-1.212 5.5-2.357 7.305-.295.466-.587.927-.855 1.416-.27.494-.517 1.21-.157 1.824.37.628 1.31 1.024 2.457 1.03 3.338.002 8.386-4.83 8.44-12.11.06-7.618-6.36-15.467-17.808-15.467-17.33 0-40.663 19.035-40.663 49.885 0 21.823 13.68 36.906 32.216 36.906 13.152 0 26.163-9.416 37.685-25.146l.707-.953.05 1.184c.246 5.757.663 10.294.97 13.607.196 2.13.34 3.67.33 4.518-.012 1.862.29 3.152.933 3.945.64.794 1.66 1.17 3.202 1.18 2.59 0 3.106-1.765 4.13-6.117l.296-1.243c1.273-5.274 5.977-22.487 13.053-22.487 1.156.01 2.047.352 2.68 1.023 1.562 1.656 1.392 5.057 1.194 8.997-.124 2.46-.252 4.998-.005 7.47.666 6.678 3.55 9.943 8.814 9.982 5.406 0 11.046-5.822 14.022-11.233l.563-1.022.217 1.146c.55 2.896 3.008 12.4 10.702 12.4 6.973 0 12.954-7.342 19.512-22.455l.858-1.973-.053 2.153c-.14 5.726-.45 12.72-.452 18.125-.003 4.182.42 5.78 2.353 5.78.138 0 .286.018.44.018 1.853 0 3.11-1.105 3.74-3.294 4.933-17.197 9.198-25.207 13.423-25.207 4.138.033 4.526 7.596 4.857 20.963l.023.938c.1 4.674.268 6.743 3.173 6.765 2.204 0 2.752-1.732 3.89-5.994.218-.814.456-1.705.735-2.668 3.983-13.82 7.286-19.46 11.397-19.46 3.52.026 3.716 3.655 3.78 4.847.136 2.553-.127 5.227-.38 7.807-.236 2.4-.48 4.88-.387 7.19.215 5.406 3.175 8.406 8.335 8.445 6.697 0 12.743-7.833 18.037-23.276l.367-1.078.42 1.058c.96 2.427 2.21 5.713 3.37 9.633l.044.15-.062.14c-5.126 11.384-8.743 24.065-8.794 30.838-.07 8.923 3.968 14.72 10.285 14.77h.108c3.436 0 11.446-1.38 11.602-14.148.062-5.233-1.174-12.632-3.672-21.996l-.286-1.073.922.617c3.19 2.115 6.787 3.248 10.405 3.278zM150.475 65.838c-2.255 9.072-6.578 20.02-14.372 20.646-.218.015-.43.027-.634.027-3.234 0-5.047-2.117-5.39-6.292-.428-5.226 1.826-11.343 5.74-15.592 2.49-2.706 5.302-4.195 7.912-4.195h.053c3.297.026 5.606 2.673 6.668 5.14l.056.128-.035.14zm71.47-50.73h.112c.734 0 1.38.37 1.92 1.097 2.557 3.46 2.594 16.078-1.804 30.44-2.515 8.205-5.895 15.96-9.775 22.418l-.618 1.028-.158-1.19c-.457-3.472-.682-7.087-.84-10.165-1.123-21.705 5.443-43.33 11.163-43.626zM162.59 90.386c7.532-.605 13.508-10.848 15.727-15.223l.572-1.13.216 1.248c1.064 6.155 4.413 16.498 14.887 16.578h.088c4.532 0 9.673-2.77 14.867-8.01l.38-.386.278.463c3.498 5.85 8.19 8.957 13.183 8.703 7.354-.382 11.815-5.593 12.21-9.212.1-.923-.145-1.79-.672-2.377-.662-.738-1.62-.825-2.328-.15l-.334.32c-1.713 1.643-4.902 4.706-8.376 4.888-4.255.208-7.403-2.336-9.437-7.586l-.083-.22.143-.187c11.7-15.303 19.91-38.656 19.1-54.316-.372-7.25-2.48-15.892-10.397-15.892-.194 0-.39.005-.59.016-3.034.157-5.79 1.6-8.198 4.294-7.345 8.218-11.19 28.445-9.794 51.53.29 4.798 1.123 9.28 2.476 13.322l.077.224-.155.182c-4.34 5.074-8.625 7.87-12.063 7.87-8.27 0-7.992-13.866-7.337-25.368.14-2.48.35-4.06-.383-4.957-.525-.64-1.4-.958-2.68-.97h-.15c-2.94 0-3.557.605-5.063 4.973-3.133 9.075-9.316 24.303-15.537 24.303-1.725-.015-3.04-.605-3.94-1.753-3.02-3.853-.727-13.458 1.113-21.178.33-1.388.648-2.72.92-3.954.404-1.83.28-3.165-.367-3.974-.647-.804-1.943-1.132-3.652-.996-2.665.213-4.368 1.33-5.19 6.395l-.166 1.053-.62-.75c-1.163-1.716-3.432-3.763-7.642-3.763-.37 0-.75.015-1.145.046-4.494.37-9.61 3.5-13.356 8.172-4.374 5.456-6.46 12.362-5.88 19.442.03.375.085.735.14 1.092l.03.198-.137.15c-2.616 2.85-5.28 4.295-7.922 4.295-4.073-.033-6.413-3.06-6.413-8.105 0-8.495 5.756-34.096 5.756-43.365 0-9.864-4.395-15.234-12.028-15.292h-.115c-11.144 0-19.83 12.646-28.143 38.663-.76 2.385-1.588 5.136-2.3 7.516l-1.165 3.914.346-4.068c.773-9.064 1.303-17.882 1.576-26.21.414-12.575-1.286-20.668-5.196-24.74-2.11-2.196-4.9-3.278-8.537-3.307h-.095c-13.638 0-20.17 23-24.927 39.23-1.435 4.9-4.266 15.95-6.156 23.504l1.12-1.82c.84-9.513 3.27-33.342 3.11-46.268-.17-13.867-4.79-20.085-14.975-20.163h-.125c-5.44 0-9.215 2.702-11.424 4.97C2.163 15.893-.047 21.213.075 25.808c.076 2.793 1.79 5.28 3.09 5.28.846 0 1.315-1.13 1.518-1.802 3.15-10.417 7.228-15.482 12.464-15.482 2.17.016 3.785.657 4.996 1.956 4.088 4.385 3.345 16.23 1.996 37.733-.436 6.93-.93 14.784-1.345 23.716-.072 1.532-.167 3.01-.257 4.418-.4 6.203-.714 11.105 1.638 11.47 3.062.478 5.055-.767 6.073-3.796 1.51-4.496 4.902-16.782 11.464-39.235C48.01 28.52 52.766 20.682 58.852 20.682c7.03 0 7.554 12.072 6.266 37.545-.275 5.4-.642 11.516-.924 18.173-.04.937-.084 1.842-.127 2.716-.27 5.512-.484 9.86 1.09 11.53.49.518 1.16.775 2.043.78 3.048 0 3.963-2.672 5.482-7.1.27-.782.553-1.617.87-2.492 10.443-28.808 18.166-53.803 28.53-53.803 3.11 0 5.526 2.526 5.526 7.452 0 11.367-5.556 33.33-5.556 44.466 0 3.99 1.147 7.572 3.317 10.09 2.226 2.582 5.34 3.96 9.008 3.99h.08c3.468 0 7.083-1.685 10.742-5.007l.344-.31.275.373c2.41 3.24 6.3 4.98 10.498 4.656 6.44-.503 11.846-6.237 13.857-11.647l.392-1.057.394 1.057c1.492 4.015 4.724 8.85 11.63 8.292z" fill="#0B0B0A"/><path d="M186.625 32.584c-2.877 0-5.2 2.267-5.22 5.053-.025 2.807 2.284 5.108 5.143 5.13l.04.418v-.417c2.835 0 5.16-2.265 5.18-5.05.024-2.81-2.284-5.11-5.143-5.134M367.522 32.584c-2.877 0-5.2 2.267-5.223 5.053-.023 2.807 2.285 5.108 5.144 5.13l.04.418v-.417c2.838 0 5.162-2.265 5.183-5.05.02-2.81-2.286-5.11-5.145-5.134" fill="#0B0B0A"/><path d="M508.394 92.852c-1.672 0-3.02-1.346-3.02-3.018 0-1.673 1.348-3.022 3.02-3.022 1.67 0 3.022 1.35 3.022 3.022 0 1.672-1.35 3.018-3.022 3.018zm0-6.554c-1.947 0-3.533 1.587-3.533 3.536 0 1.946 1.587 3.53 3.534 3.53 1.948 0 3.536-1.584 3.536-3.53 0-1.95-1.588-3.536-3.536-3.536z" fill="#0B0C0A"/><path d="M508.28 89.613h-.654v-1.375h.91c.437 0 .912.15.912.673 0 .677-.606.703-1.167.703zm1.68-.702c0-.73-.36-1.127-1.28-1.127h-1.568v4.07h.514v-1.78h.73l1.217 1.78h.58l-1.217-1.78c.55-.097 1.024-.41 1.024-1.162z" fill="#0B0C0A"/></svg>
